X:052
T:Persian Dance,The TS.052
T:Galopede,aka TS.052
M:2/4
L:1/16
Q:1/4=110
S:Thomas Sands’ MS,1810,Lincolnshire
R:country dance
O:England;Lincolnshire
Z:vmp.Ruairidh Greig, 2011
K:G
dc|B2Bc A2AB|G2G2G2 AB|c2cd B2Bd|A2A2A2 dc|
B2Bc A2AB|G2G2G2 AB|cBAG FGAB|G2G2G2||
dc|B2gf e2ed|(dcBc) A2 dc|B2gf edcB|A2A2A2 dc|
B2gf e2ed|(dcBc) A2 dc|BdcB AcBA|G2G2G2||
Bc|d2d2d2g2|d2d2d2g2|d2d2 edcB|c2A2A2 Bc|
d2d2d2g2|d2d2d2g2|d2Bc dcBA|G2G2G2|]

